X: 24510
T: Lucy Farr's
R: barndance
M: 4/4
K: Gmajor
|G2G2G2G2|F>GA>F G2|B2B2B2B2 A>Bc>A B2|
c>de>c A2A2|B>cd>B G2G2|A>Bc>A F>DE>F|G>AB>c d2d2|
c>de>c A2A2|B>cd>B G2G2|A>Bc>A F>DE>F|G2B2G4||

